X:865
T: Boat on the Strand
S: B.Breathnach:"Ceol Rince na hEireann" IV/57 (gan ainm)
Z: B.Black
L: 1/8
M: 12/8
Q: 360
R: jig
K: G
GED DED GED G2A|BGE EGE c2A Bcd|
e2f gdB cBA BGE|GAB GED E2F G3 :|
d2B d2B gfe dcB|d2B d2B AGA BGE|
d2B d2B gfe dcB|AGA BGD E2F G3 :|
